!!!OTL: SOLLTS IM GWELB NIT FINSTER SEIN
!!!ARE: Europa, Mitteleuropa, Deutschland
!!!SCT: E0902
!!!YEM: Copyright 1995, estate of Helmut Schaffrath.
**kern
*ICvox
*Ivox
*M3/4
*k[f#]
*G:
=1
{2g
4g
=2
2g
4g
=3
2dd
4dd
=4
2.dd}
=5
{2dd
4dd
=6
2cc
4dd
=7
2b
4a
=8
2.g}
=9
{2b
4b
=10
2cc
4a
=11
2fn
4g
=12
2.a}
=13
{2g
4g
=14
2g
4g
=15
2fn
4e
=16
2d}
{4d
=17
2fn
4g
=18
2a
4g
=19
2fn
4g
=20
2.a
=21
2r}
{4dd
=22
2b
4a
=23
2g
4f#
=24
2.g
=25
2r}
{4dd
=26
2b
4a
=27
2g
4f#
=28
2.g}
==
!!!AGN: Ehestands - Lied, betrogener Ehemann
!!!ONB: ESAC (Essen Associative Code) Database: ERK2
!!!AMT: simple triple
!!!AIN: vox
!!!EED: Helmut Schaffrath
!!!EEV: 1.0
*-
